X:1
T:Brindisi / Libiamo (La Traviata)
C:Giuseppe Verdi
M:3/4
L:1/4
Q:1/4=168
K:Ab
% A section — "Libiamo ne' lieti calici"
E | A B c | B A E | A2 E | F G A | G F E | F2 E | A B c | c B A | G F E | A3 |]
